svg/24/auto-scroll.svg

<svg width="24" height="24" viewBox="0 0 24 24" fill="currentColor" xmlns="http://www.w3.org/2000/svg"><path d="M7.21967 7.78033C7.51256 8.07322 7.98744 8.07322 8.28033 7.78033L12 4.06066L15.7197 7.78033C16.0126 8.07322 16.4874 8.07322 16.7803 7.78033C17.0732 7.48744 17.0732 7.01256 16.7803 6.71967L12.5303 2.46967C12.2374 2.17678 11.7626 2.17678 11.4697 2.46967L7.21967 6.71967C6.92678 7.01256 6.92678 7.48744 7.21967 7.78033Z"/><path d="M7.21967 16.2197C7.51256 15.9268 7.98744 15.9268 8.28033 16.2197L12 19.9393L15.7197 16.2197C16.0126 15.9268 16.4874 15.9268 16.7803 16.2197C17.0732 16.5126 17.0732 16.9874 16.7803 17.2803L12.5303 21.5303C12.2374 21.8232 11.7626 21.8232 11.4697 21.5303L7.21967 17.2803C6.92678 16.9874 6.92678 16.5126 7.21967 16.2197Z"/><path fill-rule="evenodd" clip-rule="evenodd" d="M15 12C15 13.6569 13.6569 15 12 15C10.3431 15 9 13.6569 9 12C9 10.3431 10.3431 9 12 9C13.6569 9 15 10.3431 15 12ZM13.5 12C13.5 12.8284 12.8284 13.5 12 13.5C11.1716 13.5 10.5 12.8284 10.5 12C10.5 11.1716 11.1716 10.5 12 10.5C12.8284 10.5 13.5 11.1716 13.5 12Z"/></svg>

<svg xmlns="http://www.w3.org/2000/svg" width="24" height="24" fill="currentColor" viewBox="0 0 24 24">
  <path d="M7.22 7.78a.75.75 0 0 0 1.06 0L12 4.06l3.72 3.72a.75.75 0 1 0 1.06-1.06l-4.25-4.25a.75.75 0 0 0-1.06 0L7.22 6.72a.75.75 0 0 0 0 1.06Zm0 8.44a.75.75 0 0 1 1.06 0L12 19.94l3.72-3.72a.75.75 0 1 1 1.06 1.06l-4.25 4.25a.75.75 0 0 1-1.06 0l-4.25-4.25a.75.75 0 0 1 0-1.06Z"/>
  <path fill-rule="evenodd" d="M15 12a3 3 0 1 1-6 0 3 3 0 0 1 6 0Zm-1.5 0a1.5 1.5 0 1 1-3 0 1.5 1.5 0 0 1 3 0Z" clip-rule="evenodd"/>
</svg>
